X:268
T:The Steampacket
R:reel
M:4/4
L:1/8
K:Gmaj
| A~G3 AGFG | A~G3 Addc | A~G3 AGFD | ~F3G ABcB |
A~G3 AGFD | A~G3 Addc | A~G3 AGFD | ~F3G ABcA |
d~g3 a~g3 | d~g3 fdcA | d~g3 a~g3 | d2eg fdcA |
d~g3 a~g3 | abag fefg | afge fgfe | d2eg fdcA ||

